X:129
T:Colbeck House
R:Reel
B:The Athole Collection
M:C|
L:1/8
K:C
G/F/|EFGF EGcG|EFGE FDDF|1 EFGF EGcG|G,B,DF ECCF:|2
EFGE FAdf|ecGB cCC||
e/f/|gece gage|fdec Bd de/f/|gece gage|fdec Gc ce/f/|gece gage|
fdec Bddf|egGE FdFD|Bcdf ecc||

